X:3
T:Blin' Jamie
C: J. Scott Skinner
R: strathspey
M:4/4
L:1/16
Z: Jason R. Fruit <JasonFruit@gmail.com>
K:D
A4 {A}!>!B3A FA3 {c}d4 | edc2 {c}d3A B3E E3B | A4 {c}!>!B3A FA3 {c}d4 | edc2 {c}d3A F3D [DA,]4 :|
"_[sic]"g2 | (f3d) (c3d) ABc2 d3f | g3e^d3e Bc^d2 e2g2 | f3d c3d ABc2 d3f | edc2 {c}d2A2 F2D2[DA,]2 g2 |
f3dc3d (3A2B2c2 (3d2e2f2 | g3e^d3e (3!<(!B2c2^d2 (3e2f2!<)!g2 | (3f2e2d2 (3e2d2c2 (3d2c2B2 (3c2B2A2 | (3"^Last time."B2A2G2 (3A2B2c2 d2D2 !fermata![DA,]4 |]

